32x32/apps/cat.xtec.clic.JClic.jclic.svg

<svg width="32" height="32" version="1.1" xmlns="http://www.w3.org/2000/svg">
 <path d="m7.484375 3c-0.3066539 0.0067663-0.5718321 0.2129297-0.65625 0.5078125l-2.8007812 9.7988285c-0.1062672 0.371477 0.1090954 0.75861 0.4804687 0.865234l9.7988285 2.800781c0.371476 0.106267 0.758611-0.109095 0.865234-0.480468l2.800781-9.7988286c0.106266-0.371476-0.109096-0.7586114-0.480468-0.8652344l-9.7988286-2.8007812c-0.067508-0.0194899-0.1387338-0.0287118-0.2089844-0.0273438zm11.515625 6-3 10-10.332031-3.355469s-3.6671876 11.942164 6.1328122 14.751953c4.817773 1.7998 11.199219-0.396781 13.199219-7.425781l4-10.970703-10-3z" style="opacity:.2"/>
 <path d="m 19,8 10,3 -4,10.971 C 23,29 16.617773,31.19538 11.8,29.39558 2,26.585791 5.667788,14.644185 5.667788,14.644185 L 16,18 Z" style="fill:#f69a0d"/>
 <path d="m7.484796 2.0001325c-0.3066539 0.0067663-0.5731999 0.2123444-0.6576178 0.5072272l-2.7999996 9.8000233c-0.1062671 0.371477 0.1085095 0.758809 0.4798828 0.865433l9.7999996 2.800006c0.371476 0.106267 0.758808-0.10851 0.865431-0.479884l2.8-9.8000237c0.106266-0.371476-0.10851-0.7588087-0.479883-0.8654317l-9.8000005-2.8000064c-0.067508-0.0194899-0.1375619-0.0287117-0.2078125-0.0273437z" style="fill:#d7e50b"/>
 <path d="m7.484375 2c-0.3066539 0.0067663-0.5718321 0.2129297-0.65625 0.5078125l-2.8007812 9.7988285c-0.0614868 0.214938-0.0065501 0.427651 0.1152343 0.595703l2.6855469-9.3945315c0.0844179-0.2948828 0.3495961-0.5010462 0.65625-0.5078125 0.0702506-0.001368 0.1414764 0.0078539 0.2089844 0.0273438l9.7988286 2.8007812c0.156494 0.0449304 0.276539 0.1471397 0.365234 0.2695312l0.115234-0.4042968c0.106266-0.371476-0.109096-0.7586114-0.480468-0.8652344l-9.7988286-2.8007812c-0.067508-0.0194899-0.1387338-0.0287118-0.2089844-0.0273438zm11.515625 6-3 10-10.332031-3.355469s-0.7469982 2.468699-0.6542969 5.421875c0.0731182-2.487017 0.6542969-4.421875 0.6542969-4.421875l10.332031 3.355469 3-10 9.671875 2.902344 0.328125-0.902344-10-3z" style="fill:#f4f4f7;opacity:.2"/>
</svg>

<svg width="32" height="32" xmlns="http://www.w3.org/2000/svg"><path d="M7.484 3a.699.699 0 0 0-.656.508l-2.8 9.799a.7.7 0 0 0 .48.865l9.799 2.8a.7.7 0 0 0 .865-.48l2.8-9.799a.7.7 0 0 0-.48-.865l-9.799-2.8A.708.708 0 0 0 7.484 3zM19 9l-3 10-10.332-3.355s-3.667 11.942 6.133 14.751C16.619 32.196 23 30 25 22.971L29 12 19 9z" style="opacity:.2"/><path d="m19 8 10 3-4 10.971c-2 7.029-8.382 9.224-13.2 7.425-9.8-2.81-6.132-14.752-6.132-14.752L16 18z" style="fill:#f69a0d"/><path d="M7.485 2a.7.7 0 0 0-.658.507l-2.8 9.8a.7.7 0 0 0 .48.866l9.8 2.8a.7.7 0 0 0 .865-.48l2.8-9.8a.7.7 0 0 0-.48-.866l-9.8-2.8A.7.7 0 0 0 7.486 2z" style="fill:#d7e50b"/><path d="M7.484 2a.699.699 0 0 0-.656.508l-2.8 9.799a.685.685 0 0 0 .115.595l2.685-9.394a.699.699 0 0 1 .865-.48l9.8 2.8a.689.689 0 0 1 .364.27l.116-.405a.7.7 0 0 0-.48-.865l-9.8-2.8A.708.708 0 0 0 7.484 2zM19 8l-3 10-10.332-3.355s-.747 2.468-.654 5.421c.073-2.487.654-4.421.654-4.421L16 19l3-10 9.672 2.902L29 11 19 8z" style="fill:#f4f4f7;opacity:.2"/></svg>
